X: 24587
T: Lynch's
R: barndance
M: 4/4
K: Dmajor
|:AG|F2 F2 A2 A2|GFGA B2 B2|AdcB AGFE|DEFG ADFA|
F2 F2 A2 A2|GFGA B2 B2|AdcB AGFE|D2 FA d2:|
|:de|f2 f2 f2 ed|cBcd e3 f|g2 g2 g2 Ac|defg a3 g|
f2 f2 f2 ed|cBcd e2 ef|g2 g2 A2 Bc|e2 d2 d2:|

